X: 06006
T: BILLY'S POLKA
C: Bob McQuillen 14 Aug 82
B: Bob's Note Book 6 #6
%R: polka, march
Z: 2021 John Chambers <jc:trillian.mit.edu>
M: C
L: 1/8
K: G
D2 \
| G2GG G2A2 | B2Bd B2A2 | G2B2 A2BA | G2E2 E2D2 |\
| G2 G4 A2 | B2 B4 g2 | e2ge d2ed | B2A2 A2Bd |
| e3d e2g2 | a3g a2ba | g2e2 edBA | G2E2 E2DE |\
| G2GG G2A2 | B2d2 e3g | d2B2 A2BA | G6 |]
|: A2 \
| B2B2 BABd | e2d2 d2Bd | e2g2 abge | B2e2 e2ba |\
| g2e2 e2ge | d2 B4 ge | d2B2 A2BA | G6 :|
%%begintext align
%% Bill Clymer has been coming to
%% our dances for several years, and you know what? During
%% World War II I once sailed on the U.S.S. George Clymer, which
%% was named after Billy's great-grandfather! It's a small world.
%%endtext

%%sep 1 1 500

%%sep 1 1 500

